icons/evolvere-blue-folders-flat-vivid-dark-fallback/actions/64/system-reboot.svg

<?xml version="1.0" encoding="UTF-8" standalone="no"?>
<!-- Created with Inkscape (http://www.inkscape.org/) -->

<svg
   xmlns:dc="http://purl.org/dc/elements/1.1/"
   xmlns:cc="http://creativecommons.org/ns#"
   xmlns:rdf="http://www.w3.org/1999/02/22-rdf-syntax-ns#"
   xmlns:svg="http://www.w3.org/2000/svg"
   xmlns="http://www.w3.org/2000/svg"
   xmlns:sodipodi="http://sodipodi.sourceforge.net/DTD/sodipodi-0.dtd"
   xmlns:inkscape="http://www.inkscape.org/namespaces/inkscape"
   width="64"
   height="64"
   id="svg13094"
   version="1.1"
   inkscape:version="0.91+devel r"
   sodipodi:docname="system-reboot.svg">
  <sodipodi:namedview
     id="base"
     pagecolor="#ffffff"
     bordercolor="#666666"
     borderopacity="1.0"
     inkscape:pageopacity="0"
     inkscape:pageshadow="2"
     inkscape:zoom="11.313709"
     inkscape:cx="25.479589"
     inkscape:cy="30.934606"
     inkscape:document-units="px"
     inkscape:current-layer="svg13094"
     showgrid="true"
     inkscape:snap-bbox="true"
     inkscape:bbox-paths="true"
     inkscape:bbox-nodes="true"
     inkscape:snap-bbox-edge-midpoints="true"
     inkscape:snap-bbox-midpoints="true"
     inkscape:object-paths="true"
     inkscape:snap-intersection-paths="true"
     inkscape:object-nodes="true"
     inkscape:snap-smooth-nodes="true"
     inkscape:snap-midpoints="true"
     inkscape:snap-object-midpoints="true"
     inkscape:snap-center="true"
     showguides="true"
     inkscape:guide-bbox="true"
     inkscape:window-width="1920"
     inkscape:window-height="1023"
     inkscape:window-x="-10"
     inkscape:window-y="35"
     inkscape:window-maximized="1"
     inkscape:snap-global="true"
     fit-margin-top="0"
     fit-margin-left="0"
     fit-margin-right="0"
     fit-margin-bottom="0"
     showborder="true"
     inkscape:showpageshadow="false"
     inkscape:snap-page="true">
    <inkscape:grid
       type="xygrid"
       id="grid3075"
       empspacing="5"
       visible="true"
       enabled="true"
       snapvisiblegridlinesonly="true"
       originx="1.6362304e-08px"
       originy="18px" />
  </sodipodi:namedview>
  <defs
     id="defs13096" />
  <metadata
     id="metadata13099">
    <rdf:RDF>
      <cc:Work
         rdf:about="">
        <dc:format>image/svg+xml</dc:format>
        <dc:type
           rdf:resource="http://purl.org/dc/dcmitype/StillImage" />
        <dc:title></dc:title>
      </cc:Work>
    </rdf:RDF>
  </metadata>
  <path
     inkscape:connector-curvature="0"
     style="color:#000000;display:inline;overflow:visible;visibility:visible;fill:#eeb015;fill-opacity:1;fill-rule:nonzero;stroke:none;stroke-width:2.28571415;marker:none;enable-background:accumulate"
     d="m 0,4 0,30 0,28 2,2 30,0 30,0 2,-2 L 64,34 64,4 32,4 0,4 Z"
     id="path4095" />
  <path
     inkscape:connector-curvature="0"
     style="color:#000000;display:inline;overflow:visible;visibility:visible;fill:#ffe231;fill-opacity:1;fill-rule:nonzero;stroke:none;stroke-width:2.28571415;marker:none;enable-background:accumulate"
     d="M 2,0 0,1 0,4 32,4 64,4 64,1 62,0 32,0 2,0 Z"
     id="path4090" />
  <path
     d="M 64,6 62,4 64,3 Z"
     id="path3028"
     style="fill:#770000;fill-opacity:0.10822898"
     inkscape:connector-curvature="0" />
  <g
     id="g3043"
     inkscape:export-filename="folder.png"
     inkscape:export-xdpi="90"
     inkscape:export-ydpi="90"
     transform="translate(-0.62500009,0.082283)" />
  <g
     id="scalable"
     transform="matrix(1.0385892,0,0,1.0385892,1214.7222,1878.8121)"
     inkscape:label="#g3701"
     style="fill:#ffffff" />
  <path
     d="M 0,6 2,4 0,3 Z"
     id="path3028-6"
     style="fill:#fff77d;fill-opacity:0.67441861"
     inkscape:connector-curvature="0" />
  <path
     style="fill:#770000;fill-opacity:0.41771019;fill-rule:nonzero;stroke:none;opacity:1;stroke-width:2.28571415;stroke-linecap:butt;stroke-linejoin:miter;stroke-miterlimit:4;stroke-dasharray:none;stroke-dashoffset:0;stroke-opacity:1;marker:none"
     d="m 29.877934,17.102819 c -4.879164,0.650869 -9.24171,3.540541 -11.740559,7.868672 -4.414727,7.646533 -1.776253,17.442695 5.87028,21.857423 7.646533,4.414728 17.442695,1.776254 21.857422,-5.870279 3.931867,-6.810194 2.253075,-15.333667 -3.559637,-20.233729 l 3.122489,-3.372288 -9.742166,0 0,9.742166 3.247389,-2.99759 0.499598,-0.499598 c 4.613076,3.622823 5.955125,10.13188 2.93514,15.362646 -3.311047,5.7349 -10.626942,7.682532 -16.361842,4.371484 -5.7349,-3.311047 -7.682532,-10.626942 -4.371485,-16.361842 1.799995,-3.117683 4.891401,-5.213154 8.368271,-5.807829 l 0,-4.059236 c -0.04093,0.0052 -0.08403,-0.0054 -0.1249,0 z m 0.125099,9.867089 0,11.990358 3.996786,0 0,-11.990358 z"
     id="path5630"
     inkscape:connector-curvature="0"
     sodipodi:nodetypes="ssssccccccsssccsccccc" />
  <path
     style="fill:#400000;fill-opacity:0.10822897;fill-rule:nonzero;stroke:none;opacity:1;stroke-width:2.28571415;stroke-linecap:butt;stroke-linejoin:miter;stroke-miterlimit:4;stroke-dasharray:none;stroke-dashoffset:0;stroke-opacity:1;marker:none"
     d="m 29.875,17.09375 c -4.879164,0.650869 -9.251151,3.546869 -11.75,7.875 C 14.292772,31.606365 15.790488,39.861356 21.25,44.8125 16.621503,39.800999 15.538034,32.181558 19.125,25.96875 21.472901,21.902069 25.478835,19.112948 30,18.25 l 0,-1.15625 c -0.04093,0.0052 -0.08413,-0.0054 -0.125,0 z m 5.8125,0.25 0,9.75 1,-0.9375 0,-7.8125 7.8125,0 0.9375,-1 -9.75,0 z m 7.65625,4.34375 -0.03125,0.03125 c 0.141951,0.119663 0.269252,0.251093 0.40625,0.375 -0.12594,-0.136161 -0.243842,-0.274052 -0.375,-0.40625 z M 41,25.09375 c 3.305988,3.744397 4.017487,9.29808 1.375,13.875 -3.311047,5.7349 -10.6401,7.686048 -16.375,4.375 -0.716863,-0.413881 -1.373113,-0.909377 -1.96875,-1.4375 0.833408,0.940644 1.819089,1.773743 2.96875,2.4375 5.7349,3.311048 13.063953,1.3599 16.375,-4.375 2.889035,-5.003955 1.764716,-11.17731 -2.375,-14.875 z m -11,1.875 0,12 1,0 0,-11 3,0 0,-1 -4,0 z"
     id="path5608"
     inkscape:connector-curvature="0" />
</svg>

<svg xmlns="http://www.w3.org/2000/svg" viewBox="0 0 64 64"><g color="#000"><path d="m0 4v30 28l2 2h30 30l2-2v-28-30h-32-32" fill="#eeb015"/><path d="m2 0l-2 1v3h32 32v-3l-2-1h-30-30" fill="#ffe231"/></g><path d="m64 6l-2-2 2-1" fill="#700" fill-opacity=".108"/><path d="m0 6l2-2-2-1" fill="#fff77d" fill-opacity=".674"/><path d="m29.878 17.1c-4.879.651-9.242 3.541-11.741 7.869-4.415 7.647-1.776 17.443 5.87 21.857 7.647 4.415 17.443 1.776 21.857-5.87 3.932-6.81 2.253-15.334-3.56-20.234l3.122-3.372h-9.742v9.742l3.247-2.998.5-.5c4.613 3.623 5.955 10.132 2.935 15.363-3.311 5.735-10.627 7.683-16.362 4.371-5.735-3.311-7.683-10.627-4.371-16.362 1.8-3.118 4.891-5.213 8.368-5.808v-4.059c-.041.005-.084-.005-.125 0m.125 9.867v11.99h3.997v-11.99z" fill="#700" fill-opacity=".418"/><path d="m29.875 17.09c-4.879.651-9.251 3.547-11.75 7.875-3.832 6.638-2.335 14.893 3.125 19.844-4.628-5.01-5.712-12.631-2.125-18.844 2.348-4.067 6.354-6.856 10.875-7.719v-1.156c-.041.005-.084-.005-.125 0m5.813.25v9.75l1-.938v-7.813h7.813l.938-1h-9.75m7.656 4.344l-.031.031c.142.12.269.251.406.375-.126-.136-.244-.274-.375-.406m-2.344 3.406c3.306 3.744 4.02 9.298 1.375 13.875-3.311 5.735-10.64 7.686-16.375 4.375-.717-.414-1.373-.909-1.969-1.438.833.941 1.819 1.774 2.969 2.438 5.735 3.311 13.06 1.36 16.375-4.375 2.889-5 1.765-11.177-2.375-14.875m-11 1.875v12h1v-11h3v-1h-4" fill="#400000" fill-opacity=".108"/></svg>
